svgs/onstream.svg

<svg width="192" height="192" viewBox="0 0 192 192" fill="none" xmlns="http://www.w3.org/2000/svg">
<g clip-path="url(#clip0_245_130)">
<path d="M38.8024 142.892C-9.15517 92.1454 41.733 10.1192 111.563 20.9786C115.042 21.5196 117.053 25.111 115.952 28.4552L115.764 29.0286C114.806 31.9375 111.812 33.6279 108.775 33.2331C56.3941 26.4222 9.68556 83.6324 48.8399 132.867C50.8091 135.343 50.7854 138.933 48.5854 141.206L47.0382 142.805C44.7788 145.14 41.0342 145.253 38.8024 142.892Z" stroke="black" stroke-width="8"/>
<path d="M88.9759 170.516C154.372 183.238 197.181 101.152 154.207 50.287C151.956 47.6231 147.891 47.7701 145.606 50.4048L145.452 50.582C143.426 52.919 143.538 56.3984 145.467 58.8168C176.504 97.7337 151.967 163.987 92.048 157.275C88.9654 156.93 85.9842 158.77 85.16 161.76L84.7196 163.358C83.8395 166.551 85.7248 169.884 88.9759 170.516Z" stroke="black" stroke-width="8"/>
<path d="M103.182 117.499L44.0864 158.416C40.9509 160.587 40.61 165.094 43.3832 167.712L45.3608 169.579C47.4616 171.562 50.6775 171.767 53.0125 170.066L131.502 112.886C135.486 109.984 134.465 103.783 129.762 102.31L91.2642 90.2598C86.6011 88.8002 85.5447 82.6769 89.4492 79.7392L151.781 32.8423C154.589 30.7295 154.988 26.6666 152.646 24.0475L150.976 22.1815C148.871 19.8281 145.302 19.509 142.813 21.4517L60.7812 85.47C56.9028 88.4967 58.115 94.648 62.8517 95.977L101.387 106.789C106.277 108.161 107.357 114.608 103.182 117.499Z" stroke="black" stroke-width="8"/>
</g>
<defs>
<clipPath id="clip0_245_130">
<rect width="192" height="192" fill="white"/>
</clipPath>
</defs>
</svg>

<svg width="192" height="192" viewBox="0 0 192 192" fill="none" xmlns="http://www.w3.org/2000/svg"><g clip-path="url(#a)" stroke="#000" stroke-width="8"><path d="M38.802 142.892C-9.155 92.145 41.733 10.119 111.563 20.979c3.479.54 5.49 4.132 4.389 7.476l-.188.574c-.958 2.909-3.952 4.599-6.989 4.204-52.38-6.81-99.09 50.4-59.935 99.634 1.97 2.476 1.945 6.066-.255 8.339l-1.547 1.599c-2.26 2.335-6.004 2.448-8.236.087ZM88.976 170.516c65.396 12.722 108.205-69.364 65.231-120.229-2.251-2.664-6.316-2.517-8.601.118l-.154.177c-2.026 2.337-1.914 5.816.015 8.235 31.037 38.917 6.5 105.17-53.419 98.458-3.083-.345-6.064 1.495-6.888 4.485l-.44 1.598c-.88 3.193 1.005 6.526 4.256 7.158Z"/><path d="m103.182 117.499-59.096 40.917c-3.135 2.171-3.476 6.678-.703 9.296l1.978 1.867a6 6 0 0 0 7.652.487l78.489-57.18c3.984-2.902 2.963-9.103-1.74-10.576L91.264 90.26c-4.663-1.46-5.72-7.583-1.815-10.52l62.332-46.898a6 6 0 0 0 .865-8.794l-1.67-1.866a6 6 0 0 0-8.163-.73L60.781 85.47c-3.878 3.027-2.666 9.178 2.07 10.507l38.536 10.812c4.89 1.372 5.97 7.819 1.795 10.71Z"/></g><defs><clipPath id="a"><path fill="#fff" d="M0 0h192v192H0z"/></clipPath></defs></svg>
